X: 3068
T: Bean Pháidín
R: slip jig
M: 9/8
K: Gmajor
BAG Bdd Bdd|BAG Bc/d/B A2G|BAG Bdd Bdd|edd gdB A2G|
BAG BDD BDD|BAG Bc/d/B A2G|BAG Bdd Bdd|edd gdB A2G||
def gba age|def gba g3|def gba age|dB/c/d gdB A2G|
def gba age|dB/c/d gba g3|def gba age|dB/c/d gdB A2G||

